X:1
T:O combien ie suis
T:Jean Maillard
T:Source : Livre I de 25 chansons nouvelles à 4 parties---Paris---N.du Chemin---1549. Editor : André Vierendeels ( 08/02/18). Notes : Original clefs : C1, C3, C3, F3 Original note values have been halved Editorial accidentals above the stave
T:O combien ie suis
T:©
T:©
T:©
C:Jean Maillard
Z:©
%%score [ 1 [ 2 3 ] 4 ]
L:1/8
Q:1/4=120
M:2/2
K:F
V:1 treble nm="Soprano" snm="S"
V:2 treble-8 nm="Tenor 1" snm="T 1"
V:3 treble-8 nm="Tenor 2" snm="T 2"
V:4 bass nm="Bass" snm="B"
V:1
 d4 c2 B2 | A2 G2 F3 G | A2 B4 AG | F4 z2 F2 | F2 F2 G2 E2 | DEFG A2 B2 |"^#" AG G4 F2 | %7
w: O, com- bien|ie suis for- *|* tu- * *|né de|ser- vir mais- tres-|se _ _ _ _ si|bel- * * *|
w: Pour- quoy ne|m'est pre- de- *|* sti- * *|né, le|bien que son ma-|ry _ _ _ _ a|d'el- * * *|
[M:2/4] G4 :|[M:2/2] z2 B4 A2 | G4 F2 G2- | G2 F2 E4 | D4 F4 | G2 G2 F2 B2 | B2 A2 B2 B2- | %14
w: le,|el- l'est|doul- c'et luy|_ re- bel-|le, n'est|ce pas gran- de|cru- au- té, qu'el-|
w: le,|||||||
 B2 A2 G4 | F2 G4 F2 | E4 D4- | D4 F4 | G2 G2 FEFG | A2 G2 G2 F2 | G2 B4 A2 | G4 F2 G2- | %22
w: * le vit|en pei- ne|tel- le,|_ sans|se- cou- rir _ _ _|_ ma loy- au-|té? Qu'el- le|vit en pei-|
w: ||||||||
 G2 F2 E4 | D8 | F4 G2 G2 | FEFG A2 G2 |"^#" G2 F2 G4- | G8 |] %28
w: * ne tel-|le,|sans se- cou-|rir _ _ _ _ ma|loy- au- té.|_|
w: ||||||
V:2
 f4 f2 d2 | f2 e2 d4 | c2 B2 G4 | A2 A2 A2 A2 | d3 c B2 c2 | F2 f4 d2 | e2 c2 d4 |[M:2/4] d4 :| %8
w: O, com- bien|ie suis for-|tu- * *|né, de ser- vir|mais- tres- se si|bel- * *||le,|
w: Pour- quoy ne|m'est pre- de-|sti- * *|n', le bien que|son _ _ ma-|ry a d'el-||le,|
[M:2/2] z2 f4 f2 | d6 B2 | B2 B2 c4 | F2 B2 d2 d2 | B3 A/G/ A2 f2 | f2 f2 d4 | f4 e2 d2- | %15
w: el- l'est|doul- c'et|luy re- bel-|le, n'est ce pas|gran- * * * de|cru- au- té,|qu'el- le vit|
w: |||||||
 d2 c2 B2 B2 | c4 F2 F2 | B2 B2 A4 | d8 | e2 c2 d4 | d4 f4 | e2 d4 c2 | B2 B2 c4 | F2 F2 B2 B2 | %24
w: _ en pei- ne|tel- le, sans|se- cou- rir|ma|loy- * au-|té, qu'el-|le vit en|pei- ne tel-|le, sans se- cou-|
w: |||||||||
 A4 d4- |"^b" d4 e2 c2 | d4 d4- | d8 |] %28
w: rir ma|_ loy- *|au- té.|_|
w: ||||
V:3
 B4 A2 B2 | c3 B AG A2- | A2 d2 d2 c2 | d4 z2 A2 | A2 A2 G2 A2 | B4 A2 G2 | cBAG A4 |[M:2/4] G4 :| %8
w: O, com- bien|ie _ _ _ _|_ suis for- tu-|né, de|ser- vir mais- tres-|* se si|bel- * * * *|le,|
w: Pour- quoy ne|m'est _ _ _ _|_ pre- de- sti-|né, le|bien que son ma-|* ry a|d'el- * * * *|le,|
[M:2/2] z2 d4 c2 | B4 A2 G2- | GA B2 B2 A2 | B2 F2 B2 B2 | GABc d2 d2 | c2 c2 B2 d2- | d2 c2 B4 | %15
w: el- l'est|doul- c'et luy|_ _ re- bel- *|le, n'est ce pas|gran- * * * * de|cru- au- té qu'el-|* le vit|
w: |||||||
 A2 G3 A B2- | B2 A2 B3 A/G/ | F4 z2 F2 | B2 B2 AGAB | cBAG A2 A2 | G2 d2 d2 c2 | B4 A2 G2- | %22
w: en pei- * *|* ne tel- * *|le, sans|se- cou- rir _ _ _|_ _ _ _ _ ma|loy- * au- té,|qu'el- le vit|
w: |||||||
 GA B4 A2 | B3 A/G/ F4 | z2 F2 B2 B2 | AGAB cBAG | A2 A2 G4- | G8 |] %28
w: _ en pei- ne|tel- * * le,|sans se- cou-|rir _ _ _ ma _ _ _|loy- au- té.|_|
w: ||||||
V:4
 B,,4 F,2 G,2 | F,2 C,2 D,3 E, | F,2 G,2 E,4 | D,4 z2 D,2 | D,2 D,2 E,2 C,2 | B,,C,D,E, F,2 G,2 | %6
w: O, com- bien|ie suis for- *|* tu- *|né, de|ser- vir mais- tres-|se _ _ _ _ si|
w: Pour- quoy ne|m'est pre- de- *|* sti- *|né, le|bien que son ma-|ry _ _ _ _ a|
 C,2 E,2 D,4 |[M:2/4] G,4 :|[M:2/2] z2 B,4 F,2 | G,4 D,2 E,2- | E,2 D,2 C,4 | B,,4 z2 B,,2 | %12
w: bel- * *|le,|el- l'est|doul- c'et luy|_ re- bel-|le, n'est-|
w: d'el- * *|le,|||||
"^b""^b" E,2 E,2 D,2 B,,2 | F,2 F,2 B,,2 B,2- | B,2 F,2 G,4 | D,2 E,4 D,2 | C,4 B,,4- | B,,4 D,4 | %18
w: ce pas gran- de|cru- au té? Qu'el-|* le vit|en pei- ne|tel- le,|_ sans|
w: ||||||
 G,,2 G,,2 D,2 D,2 | C,2 E,2 D,4 | z2 B,4 F,2 | G,4 D,2 E,2- | E,2 D,2 C,4 | B,,8 | D,4 G,,2 G,,2 | %25
w: se- cou- rir ma|loy- au- té,|qu'el- le|vit en pei-|* e tel-|le,|sans se- cou-|
w: |||||||
"^b" D,2 D,2 C,2 E,2 | D,4 G,4- | G,8 |] %28
w: rir ma loy- *|au- té.|_|
w: |||

